X: 17055
T: Heather Glen
R: hornpipe
M: 4/4
K: Dmajor
|:AG|FEFG A2GA|BABc dcde|fdec dBAF|B2E2E2 AG|
FEFG A2GA|BABc dcde|fdec dBAG|F2D2D2:|
|:g2|fefg afdf|e2A2A2dc|BABc dfed|c2A2 ABAG|
FEFG A2GA|BABc dcde|fdec dBAG|F2D2D2:|

